static/assets/emoji/svg/1f4e7.svg

<svg enable-background="new 0 0 128 128" viewBox="0 0 128 128" xmlns="http://www.w3.org/2000/svg" xmlns:xlink="http://www.w3.org/1999/xlink"><linearGradient id="g" x1="64" x2="64" y1="36.833" y2="104.33" gradientUnits="userSpaceOnUse"><stop stop-color="#FFC107" offset="0"/><stop stop-color="#FFD54F" offset="1"/></linearGradient><path d="m120 104h-112c-2.21 0-4-1.79-4-4v-72c0-2.21 1.79-4 4-4h112c2.21 0 4 1.79 4 4v72c0 2.21-1.79 4-4 4z" fill="url(#g)"/><linearGradient id="f" x1="64" x2="64" y1="8.4562" y2="72.154" gradientUnits="userSpaceOnUse"><stop stop-color="#FFE082" offset="0"/><stop stop-color="#FFCA28" offset=".9931"/></linearGradient><path d="M124,30.16V28c0-2.21-1.79-4-4-4H8c-2.21,0-4,1.79-4,4v2.02l59.91,46.13L124,30.16z" fill="url(#f)"/><defs><path id="e" d="m120 104h-112c-2.21 0-4-1.79-4-4v-72c0-2.21 1.79-4 4-4h112c2.21 0 4 1.79 4 4v72c0 2.21-1.79 4-4 4z"/></defs><clipPath id="a"><use xlink:href="#e"/></clipPath><g clip-path="url(#a)" fill="none" stroke="#FFB300" stroke-miterlimit="10" stroke-width="3"><line x1="43.01" x2="-.19" y1="60.76" y2="107.93"/><line x1="84.88" x2="128" y1="60.66" y2="108.12"/></g><polyline points="0.08 27.78 63.91 76.14 127.92 27.94" clip-path="url(#a)" fill="none" stroke="#FFB300" stroke-miterlimit="10" stroke-width="3"/><g opacity=".2"><path d="m120 27c0.55 0 1 0.45 1 1v72c0 0.55-0.45 1-1 1h-112c-0.55 0-1-0.45-1-1v-72c0-0.55 0.45-1 1-1h112m0-3h-112c-2.21 0-4 1.79-4 4v72c0 2.21 1.79 4 4 4h112c2.21 0 4-1.79 4-4v-72c0-2.21-1.79-4-4-4z" fill="#444"/></g><linearGradient id="c" x1="64" x2="64" y1="31.901" y2="95.573" gradientUnits="userSpaceOnUse"><stop stop-color="#64B5F6" offset=".0027503"/><stop stop-color="#2196F3" offset="1"/></linearGradient><polygon points="84 81.96 58.3 81.96 58.3 69.98 79.9 69.98 81.9 69.98 81.9 67.98 81.9 58.34 81.9 56.34 79.9 56.34 58.3 56.34 58.3 46.12 83.92 46.12 85.92 46.12 85.92 44.12 85.92 34.16 85.92 32.16 83.92 32.16 44 32.16 42 32.16 42 34.16 42 93.84 42 95.84 44 95.84 84 95.84 86 95.84 86 93.84 86 83.96 86 81.96" fill="url(#c)"/><g opacity=".2"><path d="m82.92 35.16v7.96h-24.62c-1.66 0-3 1.34-3 3v10.22c0 1.66 1.34 3 3 3h20.6v7.63h-20.6c-1.66 0-3 1.34-3 3v11.98c0 1.66 1.34 3 3 3h24.7v7.88h-38v-57.67h37.92m3-3h-43.92v63.67h44v-13.88h-27.7v-11.97h23.6v-13.63h-23.6v-10.23h27.62v-13.96z" fill="#444"/></g><g display="none"><g display="inline"><g opacity=".6"><circle cx="64" cy="64" r="28" fill="none" opacity=".61" stroke="#000" stroke-miterlimit="10" stroke-width=".2625"/><line x1="84" x2="84" y2="128" fill="none" opacity=".61" stroke="#000" stroke-miterlimit="10" stroke-width=".25"/><line x1="44" x2="44" y2="128" fill="none" opacity=".61" stroke="#000" stroke-miterlimit="10" stroke-width=".25"/><line x1="64" x2="64" y2="128" fill="none" opacity=".61" stroke="#000" stroke-miterlimit="10" stroke-width=".25"/><line x1="128" y1="64" y2="64" fill="none" opacity=".61" stroke="#000" stroke-miterlimit="10" stroke-width=".25"/><line x1="128" y1="44" y2="44" fill="none" opacity=".61" stroke="#000" stroke-miterlimit="10" stroke-width=".25"/><line x1="128" y1="83.75" y2="83.75" fill="none" opacity=".61" stroke="#000" stroke-miterlimit="10" stroke-width=".25"/><line x1="128" y1="128" fill="none" opacity=".61" stroke="#000" stroke-miterlimit="10" stroke-width=".25"/><line x2="128" y1="128" fill="none" opacity=".61" stroke="#000" stroke-miterlimit="10" stroke-width=".25"/><g opacity=".61"><path d="M64,4.26c32.94,0,59.74,26.8,59.74,59.74S96.94,123.74,64,123.74S4.26,96.94,4.26,64S31.06,4.26,64,4.26 M64,4 C30.86,4,4,30.86,4,64s26.86,60,60,60s60-26.86,60-60S97.14,4,64,4L64,4z"/></g><path d="m107.97 115.97h-87.94c-4.42 0-8.03-3.61-8.03-8.03v-87.91c0-4.42 3.61-8.03 8.03-8.03h87.94c4.42 0 8.03 3.61 8.03 8.03v87.91c0 4.42-3.61 8.03-8.03 8.03z" fill="none" opacity=".61" stroke="#000" stroke-miterlimit="10" stroke-width=".2578"/><path d="m100 124h-72c-4.4 0-8-3.6-8-8v-104c0-4.4 3.6-8 8-8h72c4.4 0 8 3.6 8 8v104c0 4.4-3.6 8-8 8z" fill="none" opacity=".61" stroke="#000" stroke-miterlimit="10" stroke-width=".2628"/><path d="M113.77,108H14.23 C8.6,108,4,103.4,4,97.77V30.28c0-5.63,4.6-10.23,10.23-10.23h99.54c5.63,0,10.23,4.6,10.23,10.23v67.48 C124,103.4,119.4,108,113.77,108z" fill="none" opacity=".61" stroke="#000" stroke-miterlimit="10" stroke-width=".2627"/></g><g opacity=".2"><defs><rect id="d" width="128" height="128" opacity=".2"/></defs><clipPath id="b"><use xlink:href="#d"/></clipPath><g clip-path="url(#b)"><g fill="none" stroke="#000" stroke-miterlimit="10" stroke-width=".25"><line x1="-28" x2="-28" y1="160" y2="-32"/><line x1="-24" x2="-24" y1="160" y2="-32"/><line x1="-20" x2="-20" y1="160" y2="-32"/><line x1="-16" x2="-16" y1="160" y2="-32"/><line x1="-12" x2="-12" y1="160" y2="-32"/><line x1="-8" x2="-8" y1="160" y2="-32"/><line x1="-4" x2="-4" y1="160" y2="-32"/><line y1="160" y2="-32"/><line x1="4" x2="4" y1="160" y2="-32"/><line x1="8" x2="8" y1="160" y2="-32"/><line x1="12" x2="12" y1="160" y2="-32"/><line x1="16" x2="16" y1="160" y2="-32"/><line x1="20" x2="20" y1="160" y2="-32"/><line x1="24" x2="24" y1="160" y2="-32"/><line x1="28" x2="28" y1="160" y2="-32"/><line x1="32" x2="32" y1="160" y2="-32"/><line x1="36" x2="36" y1="160" y2="-32"/><line x1="40" x2="40" y1="160" y2="-32"/><line x1="44" x2="44" y1="160" y2="-32"/><line x1="48" x2="48" y1="160" y2="-32"/><line x1="52" x2="52" y1="160" y2="-32"/><line x1="56" x2="56" y1="160" y2="-32"/><line x1="60" x2="60" y1="160" y2="-32"/><line x1="64" x2="64" y1="160" y2="-32"/><line x1="68" x2="68" y1="160" y2="-32"/><line x1="72" x2="72" y1="160" y2="-32"/><line x1="76" x2="76" y1="160" y2="-32"/><line x1="80" x2="80" y1="160" y2="-32"/><line x1="84" x2="84" y1="160" y2="-32"/><line x1="88" x2="88" y1="160" y2="-32"/><line x1="92" x2="92" y1="160" y2="-32"/><line x1="96" x2="96" y1="160" y2="-32"/><line x1="100" x2="100" y1="160" y2="-32"/><line x1="104" x2="104" y1="160" y2="-32"/><line x1="108" x2="108" y1="160" y2="-32"/><line x1="112" x2="112" y1="160" y2="-32"/><line x1="116" x2="116" y1="160" y2="-32"/><line x1="120" x2="120" y1="160" y2="-32"/><line x1="124" x2="124" y1="160" y2="-32"/><line x1="128" x2="128" y1="160" y2="-32"/><line x1="132" x2="132" y1="160" y2="-32"/><line x1="136" x2="136" y1="160" y2="-32"/><line x1="137" x2="137" y1="166.05" y2="-25.95"/><line x1="144" x2="144" y1="160" y2="-32"/><line x1="148" x2="148" y1="160" y2="-32"/><line x1="152" x2="152" y1="160" y2="-32"/><line x1="156" x2="156" y1="160" y2="-32"/></g><g fill="none" stroke="#000" stroke-miterlimit="10" stroke-width=".25"><line x1="-32" x2="160" y1="-28" y2="-28"/><line x1="-32" x2="160" y1="-24" y2="-24"/><line x1="-32" x2="160" y1="-20" y2="-20"/><line x1="-32" x2="160" y1="-16" y2="-16"/><line x1="-32" x2="160" y1="-12" y2="-12"/><line x1="-32" x2="160" y1="-8" y2="-8"/><line x1="-32" x2="160" y1="-4" y2="-4"/><line x1="-32" x2="160"/><line x1="-32" x2="160" y1="4" y2="4"/><line x1="-32" x2="160" y1="8" y2="8"/><line x1="-32" x2="160" y1="12" y2="12"/><line x1="-32" x2="160" y1="16" y2="16"/><line x1="-32" x2="160" y1="20" y2="20"/><line x1="-32" x2="160" y1="24" y2="24"/><line x1="-32" x2="160" y1="28" y2="28"/><line x1="-32" x2="160" y1="32" y2="32"/><line x1="-32" x2="160" y1="36" y2="36"/><line x1="-32" x2="160" y1="40" y2="40"/><line x1="-32" x2="160" y1="44" y2="44"/><line x1="-32" x2="160" y1="48" y2="48"/><line x1="-32" x2="160" y1="52" y2="52"/><line x1="-32" x2="160" y1="56" y2="56"/><line x1="-32" x2="160" y1="60" y2="60"/><line x1="-32" x2="160" y1="64" y2="64"/><line x1="-32" x2="160" y1="68" y2="68"/><line x1="-32" x2="160" y1="72" y2="72"/><line x1="-32" x2="160" y1="76" y2="76"/><line x1="-32" x2="160" y1="80" y2="80"/><line x1="-32" x2="160" y1="84" y2="84"/><line x1="-32" x2="160" y1="88" y2="88"/><line x1="-32" x2="160" y1="92" y2="92"/><line x1="-32" x2="160" y1="96" y2="96"/><line x1="-32" x2="160" y1="100" y2="100"/><line x1="-32" x2="160" y1="104" y2="104"/><line x1="-32" x2="160" y1="108" y2="108"/><line x1="-32" x2="160" y1="112" y2="112"/><line x1="-32" x2="160" y1="116" y2="116"/><line x1="-32" x2="160" y1="120" y2="120"/><line x1="-32" x2="160" y1="124" y2="124"/><line x1="-32" x2="160" y1="128" y2="128"/><line x1="-32" x2="160" y1="132" y2="132"/><line x1="-32" x2="160" y1="136" y2="136"/><line x1="-32" x2="160" y1="140" y2="140"/><line x1="-32" x2="160" y1="144" y2="144"/><line x1="-32" x2="160" y1="148" y2="148"/><line x1="-32" x2="160" y1="152" y2="152"/><line x1="-32" x2="160" y1="156" y2="156"/></g><path d="m159.75-31.75v191.5h-191.5v-191.5h191.5m0.25-0.25h-192v192h192v-192z"/></g></g><g fill="#EF4438"><rect width="4" height="128" opacity=".3"/><rect x="124" width="4" height="128" opacity=".3"/><rect transform="matrix(-1.837e-16 1 -1 -1.837e-16 66 -62)" x="62" y="-58" width="4" height="120" opacity=".3"/><rect transform="matrix(-1.837e-16 1 -1 -1.837e-16 190 62)" x="62" y="66" width="4" height="120" opacity=".3"/></g></g></g></svg>

<svg viewBox="0 0 128 128" xmlns="http://www.w3.org/2000/svg" xmlns:xlink="http://www.w3.org/1999/xlink"><linearGradient id="a" x1="64" x2="64" y1="36.833" y2="104.33" gradientUnits="userSpaceOnUse"><stop stop-color="#FFC107" offset="0"/><stop stop-color="#FFD54F" offset="1"/></linearGradient><path d="M120 104H8c-2.21 0-4-1.79-4-4V28c0-2.21 1.79-4 4-4h112c2.21 0 4 1.79 4 4v72c0 2.21-1.79 4-4 4z" fill="url(#a)"/><linearGradient id="b" x1="64" x2="64" y1="8.456" y2="72.154" gradientUnits="userSpaceOnUse"><stop stop-color="#FFE082" offset="0"/><stop stop-color="#FFCA28" offset=".993"/></linearGradient><path d="M124 30.16V28c0-2.21-1.79-4-4-4H8c-2.21 0-4 1.79-4 4v2.02l59.91 46.13L124 30.16z" fill="url(#b)"/><defs><path id="c" d="M120 104H8c-2.21 0-4-1.79-4-4V28c0-2.21 1.79-4 4-4h112c2.21 0 4 1.79 4 4v72c0 2.21-1.79 4-4 4z"/></defs><clipPath id="d"><use xlink:href="#c"/></clipPath><g clip-path="url(#d)" fill="none" stroke="#FFB300" stroke-miterlimit="10" stroke-width="3"><path d="M43.01 60.76l-43.2 47.17M84.88 60.66L128 108.12"/></g><path clip-path="url(#d)" fill="none" stroke="#FFB300" stroke-miterlimit="10" stroke-width="3" d="M.08 27.78l63.83 48.36 64.01-48.2"/><path d="M120 27c.55 0 1 .45 1 1v72c0 .55-.45 1-1 1H8c-.55 0-1-.45-1-1V28c0-.55.45-1 1-1h112m0-3H8c-2.21 0-4 1.79-4 4v72c0 2.21 1.79 4 4 4h112c2.21 0 4-1.79 4-4V28c0-2.21-1.79-4-4-4z" fill="#444" opacity=".2"/><linearGradient id="e" x1="64" x2="64" y1="31.901" y2="95.573" gradientUnits="userSpaceOnUse"><stop stop-color="#64B5F6" offset=".003"/><stop stop-color="#2196F3" offset="1"/></linearGradient><path fill="url(#e)" d="M84 81.96H58.3V69.98h23.6V56.34H58.3V46.12h27.62V32.16H42v63.68h44V81.96z"/><path d="M82.92 35.16v7.96H58.3c-1.66 0-3 1.34-3 3v10.22c0 1.66 1.34 3 3 3h20.6v7.63H58.3c-1.66 0-3 1.34-3 3v11.98c0 1.66 1.34 3 3 3H83v7.88H45V35.16h37.92m3-3H42v63.67h44V81.95H58.3V69.98h23.6V56.35H58.3V46.12h27.62V32.16z" fill="#444" opacity=".2"/></svg>
